material/.icons/material/music-note-bluetooth.svg

<svg xmlns="http://www.w3.org/2000/svg" viewBox="0 0 24 24"><path d="M22 9.85L19.14 7h-.5v3.79L16.35 8.5l-.71.71L18.43 12l-2.79 2.79.71.71 2.29-2.29V17h.5L22 14.15 19.85 12 22 9.85m-2.36-.94l.94.94-.94.94V8.91m.94 5.24l-.94.94v-1.88l.94.94M9.64 3v10.55c-.59-.34-1.27-.55-2-.55-2.21 0-4 1.79-4 4s1.79 4 4 4 4-1.79 4-4V7h4V3h-6z"/></svg>

<?xml version="1.0" encoding="UTF-8"?><!DOCTYPE svg PUBLIC "-//W3C//DTD SVG 1.1//EN" "http://www.w3.org/Graphics/SVG/1.1/DTD/svg11.dtd"><svg xmlns="http://www.w3.org/2000/svg" xmlns:xlink="http://www.w3.org/1999/xlink" version="1.1" id="mdi-music-note-bluetooth" width="24" height="24" viewBox="0 0 24 24"><path d="M22 9.85L19.14 7H18.64V10.79L16.35 8.5L15.64 9.21L18.43 12L15.64 14.79L16.35 15.5L18.64 13.21V17H19.14L22 14.15L19.85 12L22 9.85M19.64 8.91L20.58 9.85L19.64 10.79V8.91M20.58 14.15L19.64 15.09V13.21L20.58 14.15M9.64 3V13.55C9.05 13.21 8.37 13 7.64 13C5.43 13 3.64 14.79 3.64 17S5.43 21 7.64 21 11.64 19.21 11.64 17V7H15.64V3H9.64Z" /></svg>
